X:290
T:Rond de Loudeac-Rinqueniee  Am
Q:1/4=150
P:4 RIQUENIEE
F:httpg://www.youtube.com/watch?v=yZZSZh6Q7Pc&list=RDyZZSZh6Q7Pc&start_radio=1
M:4/4
L:1/8
K:Am
|:"Am" c2 B>B "G"A>^GA>B|"F"c>c B>B "E"A>^G "Am"A2 :|"Am"c2 c>c "F"c>c c>A|"Dm"A>A d>c "E"BA ^GE|
Q:3/8=150
M:6/8
|:"Am"A2Bc3 |"F"A^GA B2 B |"Dm" d2 c B2A|"E"^G3"Am"A2 E:|

